img/icon-fb.svg

<svg width="128" height="128" viewBox="0 0 128 128" fill="none" xmlns="http://www.w3.org/2000/svg">
<path fill-rule="evenodd" clip-rule="evenodd" d="M93.03 45.098H74.8021V32.9461C76.1523 21.4694 95.1903 23.6297 95.1903 23.6297V22.8196V22.6845V3.78159C94.5152 3.64657 57.3844 -5.26482 49.9582 23.0896V23.2246C48.743 26.7352 48.8781 42.9377 48.8781 44.963H32.8105V66.7014H49.6882V125.706H74.262V66.7014H93.03L95.1903 44.963H93.03V45.098Z" fill="#FF892F"/>
</svg>

<svg width="128" height="128" fill="none" xmlns="http://www.w3.org/2000/svg"><path fill-rule="evenodd" clip-rule="evenodd" d="M93.03 45.098H74.802V32.946C76.152 21.47 95.19 23.63 95.19 23.63V3.782c-.675-.135-37.806-9.047-45.232 19.308v.135c-1.215 3.51-1.08 19.713-1.08 21.738H32.81v21.738h16.878v59.005h24.574V66.701H93.03l2.16-21.738h-2.16v.135z" fill="#FF892F"/></svg>
